X: 11571
T: Edmonton Airbus, The
R: reel
M: 4/4
K: Amixolydian
cAAc BGGB|Acae cAAd|cAAc BGGB|Acae c2 cd|
cAAc BGGB|Acae cAAc|dcBd cBAc|1 BGEF G2 Bd:|2 BGEF G2 ef||
gfeg fedf|eaae cAAf|gfeg fedf|eaae c2 ef|
gfeg fedf|eaae cAAc|dcBd cBAc|1 BGEF G2 ef:|2 BGEF G4||

